X: 30462
T: Old Wheels Of The World, The
R: reel
M: 4/4
K: Gmajor
g2 gf||eABA eABA|GFEF ~G3 E|A3 B cBcd|efge dg (3.f.g.f|
eABA eABA|GFEF ~G3 E|(3.A.c.A AB cBcd|efge dcBc||
dg ~g2 dg ~g2|ea ~a2 ea ~a2|efge defg|af (3.g.f.e .d.cBc|
dg ~g2 dgfg|ea ~a2 ea ~a2|efge defg|afge dg (3.f.g.f||

